public/images/constellation-ipfs-gateway.svg

<svg fill="none" height="294" viewBox="0 0 308 294" width="308" xmlns="http://www.w3.org/2000/svg" xmlns:xlink="http://www.w3.org/1999/xlink"><clipPath id="a"><path d="m.07959.479004h307.212v292.812h-307.212z"/></clipPath><circle cx="153.686" cy="146.885" fill="#f2f9fa" opacity=".1" r="126.752"/><g clip-path="url(#a)"><path d="m149.501 207.072c-1.002 1.393-2.907 1.702-4.304.802-1.397-.999-1.708-2.898-.804-4.291.903-1.392 2.907-1.702 4.304-.802 1.397.999 1.708 2.898.804 4.291z" fill="#7fa9c1"/><path d="m199.473 201.712c-.451.633-1.312.774-1.947.366-.635-.45-.776-1.308-.367-1.941s1.312-.774 1.947-.366c.636.45.777 1.308.367 1.941z" fill="#7fa9c1"/><path d="m173.704 256.096c-.664.915-1.905 1.112-2.837.521-.917-.661-1.115-1.899-.522-2.828.593-.928 1.905-1.111 2.837-.52.917.661 1.114 1.899.522 2.827z" fill="#7fa9c1"/><path d="m159.154 102.116c-.522.731-1.51.886-2.244.422-.734-.521-.889-1.506-.423-2.237.466-.7316 1.51-.8863 2.244-.4221.734.5201.889 1.5051.423 2.2371z" fill="#7fa9c1"/><path d="m110.707 169.526c-.466.647-1.327.774-1.976.366-.649-.464-.776-1.322-.367-1.969.409-.648 1.326-.774 1.976-.366.649.464.776 1.322.367 1.969z" fill="#7fa9c1"/><path d="m171.192 41.3587c-.338.4783-1.002.5908-1.482.2813-.479-.3376-.578-.9988-.282-1.4771.297-.4783 1.002-.5908 1.482-.2813.48.3376.579.9988.282 1.4771z" fill="#7fa9c1"/><path d="m262.668 121.866c-.338.478-1.002.591-1.481.281-.48-.337-.579-.998-.283-1.477.297-.478 1.002-.591 1.482-.281.48.338.579.999.282 1.477z" fill="#7fa9c1"/><path d="m140.018 241.002c-.847.282-1.75-.154-2.061-.97-.282-.844.17-1.745.974-2.054.805-.31 1.75.155 2.061.971.282.844-.17 1.744-.974 2.053z" fill="#7fa9c1"/><path d="m132.496 239.244c-.565.197-1.157-.113-1.369-.633-.198-.563.113-1.154.635-1.365s1.157.113 1.369.633c.197.563-.113 1.154-.635 1.365z" fill="#7fa9c1"/><path d="m198.838 196.099c-.564.197-1.157-.112-1.369-.633-.197-.562.113-1.153.635-1.364s1.157.112 1.369.633c.198.562-.113 1.153-.635 1.364z" fill="#7fa9c1"/><path d="m219.597 86.3319c-.564.197-1.157-.1125-1.369-.633-.197-.5627.113-1.1535.636-1.3645.522-.211 1.157.1125 1.368.633.198.5627-.112 1.1535-.635 1.3645z" fill="#7fa9c1"/><path d="m171.94 221.674c-.564.197-1.157-.113-1.369-.633-.197-.563.113-1.154.635-1.365s1.158.113 1.369.633c.198.563-.113 1.154-.635 1.365z" fill="#7fa9c1"/><path d="m245.239 208.071c-.564.197-1.157-.113-1.368-.633-.198-.563.112-1.154.635-1.365.522-.211 1.157.113 1.369.633.197.563-.113 1.154-.636 1.365z" fill="#7fa9c1"/><path d="m268.285 129.364c-.946.324-1.948-.183-2.3-1.083-.325-.943.183-1.942 1.086-2.293.903-.352 1.948.183 2.301 1.083.324.942-.184 1.941-1.087 2.293z" fill="#7fa9c1"/><path d="m278.305 153.686c-.565.197-1.157-.112-1.369-.633-.198-.562.113-1.153.635-1.364s1.157.112 1.369.633c.198.563-.113 1.153-.635 1.364z" fill="#7fa9c1"/><path d="m234.653 216.888 20-79.745-32.642-60.9536-60.655-32.0454-80.0455 29.3867" stroke="#fff" stroke-miterlimit="10"/><path d="m73.4637 79.27-29.1844 81.562 32.6419 60.968 60.6688 32.046 90.463-26.158" stroke="#fff" stroke-miterlimit="10"/><path d="m67.2544 65.667 66.6386 107.671 40.517-43.735z" stroke="#fff" stroke-miterlimit="10"/><path d="m134.449 173.486 110.099 62.058-69.298-106.46" stroke="#fff" stroke-miterlimit="10"/><path d="m161.074 14.3276v30.8574" stroke="#fff" stroke-miterlimit="10"/><path d="m161.073 248.556v31.944" stroke="#fff" stroke-miterlimit="10"/><path d="m295.127 138.451h-41.632" stroke="#fff" stroke-miterlimit="10"/><path d="m45.6484 161.381h-27.3613" stroke="#fff" stroke-miterlimit="10"/><g fill="#fff"><path d="m164.122 48.2094c-1.411 1.9694-4.093 2.3914-6.068 1.1254-1.976-1.4068-2.399-4.0796-1.129-6.049s4.092-2.3914 6.068-1.1254c1.976 1.4068 2.399 4.0796 1.129 6.049z"/><path d="m137.52 175.505c-1.327 1.843-3.839 2.251-5.702 1.055-1.848-1.322-2.258-3.826-1.058-5.683 1.199-1.857 3.838-2.251 5.701-1.055 1.849 1.322 2.258 3.826 1.059 5.683z"/><path d="m68.6654 66.3705c-.9738 1.3646-2.8225 1.6459-4.1914.7737-1.3689-.9706-1.6512-2.8134-.7762-4.178.875-1.3645 2.8225-1.6458 4.1914-.7737 1.3689.9707 1.6511 2.8135.7762 4.178z"/><path d="m248.472 235.897c0 1.97-1.623 3.588-3.599 3.588s-3.599-1.618-3.599-3.588c0-1.969 1.623-3.587 3.599-3.587s3.599 1.618 3.599 3.587z"/><path d="m237.579 219.611c0 2.04-1.693 3.728-3.74 3.728-2.046 0-3.739-1.688-3.739-3.728s1.693-3.728 3.739-3.728c2.047 0 3.74 1.688 3.74 3.728z"/><path d="m163.266 283.088c-.874 1.224-2.526 1.477-3.753.69-1.228-.872-1.482-2.518-.692-3.742s2.526-1.477 3.754-.689c1.228.872 1.482 2.518.691 3.741z"/><path d="m258.082 140.899c-1.298 1.801-3.754 2.195-5.56 1.027-1.807-1.294-2.202-3.742-1.031-5.542 1.172-1.801 3.754-2.195 5.561-1.027 1.806 1.294 2.201 3.742 1.03 5.542z"/><path d="m227.275 80.086c-1.327 1.8569-3.853 2.2508-5.702 1.055-1.863-1.3223-2.258-3.8404-1.058-5.6832 1.199-1.8428 3.852-2.2507 5.701-1.055 1.863 1.3223 2.258 3.8404 1.059 5.6832z"/><path d="m230.583 229.271c-1.03 1.435-2.992 1.744-4.431.816-1.44-1.027-1.75-2.983-.819-4.418.932-1.434 2.992-1.744 4.432-.815 1.439 1.026 1.749 2.982.818 4.417z"/><path d="m164.009 249.541c-1.03 1.435-2.992 1.745-4.431.816-1.44-1.027-1.75-2.982-.819-4.417s2.992-1.744 4.431-.816c1.44 1.027 1.75 2.982.819 4.417z"/><path d="m141.542 255.956c-1.623 2.265-4.713 2.757-7 1.294-2.272-1.618-2.766-4.699-1.298-6.963 1.468-2.265 4.714-2.758 7-1.295 2.272 1.618 2.766 4.699 1.298 6.964z"/><path d="m79.7159 222.94c-.9315 1.294-2.6955 1.575-3.9939.745-1.2983-.928-1.5805-2.687-.7479-3.981s2.6955-1.575 3.9938-.745c1.2983.928 1.5806 2.687.748 3.981z"/><path d="m76.6958 80.9583c-.9314 1.2942-2.6954 1.5755-3.9938.7456-1.2983-.9285-1.5806-2.6869-.7479-3.9811.8326-1.2942 2.6954-1.5755 3.9938-.7456 1.2983.9285 1.5806 2.6869.7479 3.9811z"/><path d="m86.6449 75.3314c-1.3689 1.8991-3.9515 2.307-5.8707 1.0832-1.9052-1.3646-2.3145-3.9389-1.0867-5.852 1.2278-1.9132 3.9515-2.3071 5.8708-1.0832 1.9051 1.3645 2.3144 3.9388 1.0866 5.852z"/><path d="m47.9062 163.027c-1.1854 1.646-3.4293 1.998-5.0804.943-1.6512-1.182-2.004-3.419-.9455-5.065 1.0584-1.646 3.4293-1.997 5.0804-.942 1.6512 1.181 2.004 3.418.9455 5.064z"/><path d="m19.3037 163.027c-1.1854 1.646-3.4293 1.998-5.0804.943-1.6512-1.182-2.004-3.419-.9456-5.065 1.0585-1.646 3.4293-1.997 5.0805-.942 1.6511 1.181 2.0039 3.418.9455 5.064z"/></g><path d="m295.028 126.888 2.992 8.089 7.974-3.081-5.476 6.499 6.774 5.43-8.566-1.449-1.2 8.511-2.991-8.089-8.087 3.095 5.575-6.64-6.76-5.303 8.439 1.449z" fill="#ffa135"/><path d="m178.714 116.718.057 8.623 8.552-.211-7.367 4.276 4.53 7.386-7.564-4.249-4.036 7.597-.056-8.624-8.665.183 7.507-4.375-4.544-7.258 7.437 4.22z" fill="#ffa135"/><path d="m163.452 13.1119c-.932 1.2942-2.696 1.5755-4.008.7456-1.299-.9285-1.581-2.6869-.748-3.99517.832-1.30826 2.695-1.57554 4.008-.74557 1.298.92844 1.58 2.68684.748 3.99514z" fill="#fff"/><path d="m76.9355 110.908c-.9314 1.294-2.6954 1.575-4.0079.745-1.2983-.928-1.5806-2.687-.7479-3.995.8326-1.308 2.6954-1.576 4.0079-.746 1.2983.929 1.5806 2.687.7479 3.996z" fill="#7fa9c1"/><path d="m89.6364 117.069c-.6632.914-1.9051 1.111-2.8224.521-.9173-.662-1.1149-1.9-.5222-2.814s1.9052-1.111 2.8225-.52c.9173.661 1.1149 1.899.5221 2.813z" fill="#7fa9c1"/><path d="m151.35 59.2945c-.578.8019-1.679.9848-2.484.4643-.804-.5768-.987-1.6741-.465-2.4759s1.679-.9847 2.483-.4642c.805.5767.988 1.674.466 2.4758z" fill="#7fa9c1"/><path d="m227.839 163.224-.409 4.192 4.163.352-3.796 1.688 1.82 3.826-3.457-2.448-2.357 3.475.423-4.192-4.233-.352 3.881-1.744-1.835-3.77 3.401 2.448z" fill="#7fa9c1"/><path d="m66.6761 151.154-.4093 4.192 4.1631.338-3.7962 1.702 1.8205 3.826-3.4575-2.461-2.3568 3.488.4234-4.192-4.2337-.365 3.8809-1.731-1.8346-3.77 3.4011 2.434z" fill="#7fa9c1"/><path d="m143.899 24.4497-.41 4.1921 4.164.3376-3.797 1.7021 1.821 3.8264-3.458-2.4478-2.356 3.4747.423-4.1921-4.234-.3517 3.881-1.7443-1.834-3.7701 3.401 2.4337z" fill="#7fa9c1"/><path d="m169.894 281.502c-.565.197-1.157-.112-1.369-.633-.198-.563.113-1.153.635-1.364s1.157.112 1.369.633c.197.562-.113 1.153-.635 1.364z" fill="#7fa9c1"/><path d="m87.7033 217.693c-.5645.197-1.1572-.113-1.3689-.633-.1975-.563.1129-1.154.6351-1.365.5221-.211 1.1572.113 1.3689.633.1976.563-.1129 1.154-.6351 1.365z" fill="#7fa9c1"/><path d="m116.789 171.608c-.565.197-1.157-.112-1.369-.633-.198-.563.113-1.153.635-1.364s1.157.112 1.369.633c.197.562-.113 1.153-.635 1.364z" fill="#7fa9c1"/><path d="m154.173 127.127c-.565.197-1.158-.112-1.369-.633-.198-.563.113-1.153.635-1.364s1.157.112 1.369.633c.197.562-.113 1.153-.635 1.364z" fill="#7fa9c1"/><path d="m174.297 154.432c-.565.197-1.158-.113-1.369-.633-.198-.563.113-1.154.635-1.365s1.157.113 1.369.633c.197.563-.113 1.154-.635 1.365z" fill="#7fa9c1"/></g></svg>

<svg width="308" height="294" viewBox="0 0 308 294" fill="none" xmlns="http://www.w3.org/2000/svg">
<circle opacity="0.1" cx="153.686" cy="146.885" r="126.752" fill="#F2F9FA"/>
<g clip-path="url(#clip0_205_257)">
<path d="M149.501 207.072C148.499 208.465 146.594 208.774 145.197 207.874C143.8 206.875 143.489 204.976 144.393 203.583C145.296 202.191 147.3 201.881 148.697 202.781C150.094 203.78 150.405 205.679 149.501 207.072Z" fill="#7FA9C1"/>
<path d="M199.473 201.712C199.022 202.345 198.161 202.486 197.526 202.078C196.891 201.628 196.75 200.77 197.159 200.137C197.568 199.504 198.471 199.363 199.106 199.771C199.742 200.221 199.883 201.079 199.473 201.712Z" fill="#7FA9C1"/>
<path d="M173.704 256.096C173.04 257.011 171.799 257.208 170.867 256.617C169.95 255.956 169.752 254.718 170.345 253.789C170.938 252.861 172.25 252.678 173.182 253.269C174.099 253.93 174.296 255.168 173.704 256.096Z" fill="#7FA9C1"/>
<path d="M159.154 102.116C158.632 102.847 157.644 103.002 156.91 102.538C156.176 102.017 156.021 101.032 156.487 100.301C156.953 99.5694 157.997 99.4147 158.731 99.8789C159.465 100.399 159.62 101.384 159.154 102.116Z" fill="#7FA9C1"/>
<path d="M110.707 169.526C110.241 170.173 109.38 170.3 108.731 169.892C108.082 169.428 107.955 168.57 108.364 167.923C108.773 167.275 109.69 167.149 110.34 167.557C110.989 168.021 111.116 168.879 110.707 169.526Z" fill="#7FA9C1"/>
<path d="M171.192 41.3587C170.854 41.837 170.19 41.9495 169.71 41.64C169.231 41.3024 169.132 40.6412 169.428 40.1629C169.725 39.6846 170.43 39.5721 170.91 39.8816C171.39 40.2192 171.489 40.8804 171.192 41.3587Z" fill="#7FA9C1"/>
<path d="M262.668 121.866C262.33 122.344 261.666 122.457 261.187 122.147C260.707 121.81 260.608 121.149 260.904 120.67C261.201 120.192 261.906 120.079 262.386 120.389C262.866 120.727 262.965 121.388 262.668 121.866Z" fill="#7FA9C1"/>
<path d="M140.018 241.002C139.171 241.284 138.268 240.848 137.957 240.032C137.675 239.188 138.127 238.287 138.931 237.978C139.736 237.668 140.681 238.133 140.992 238.949C141.274 239.793 140.822 240.693 140.018 241.002Z" fill="#7FA9C1"/>
<path d="M132.496 239.244C131.931 239.441 131.339 239.131 131.127 238.611C130.929 238.048 131.24 237.457 131.762 237.246C132.284 237.035 132.919 237.359 133.131 237.879C133.328 238.442 133.018 239.033 132.496 239.244Z" fill="#7FA9C1"/>
<path d="M198.838 196.099C198.274 196.296 197.681 195.987 197.469 195.466C197.272 194.904 197.582 194.313 198.104 194.102C198.626 193.891 199.261 194.214 199.473 194.735C199.671 195.297 199.36 195.888 198.838 196.099Z" fill="#7FA9C1"/>
<path d="M219.597 86.3319C219.033 86.5289 218.44 86.2194 218.228 85.6989C218.031 85.1362 218.341 84.5454 218.864 84.3344C219.386 84.1234 220.021 84.4469 220.232 84.9674C220.43 85.5301 220.12 86.1209 219.597 86.3319Z" fill="#7FA9C1"/>
<path d="M171.94 221.674C171.376 221.871 170.783 221.561 170.571 221.041C170.374 220.478 170.684 219.887 171.206 219.676C171.728 219.465 172.364 219.789 172.575 220.309C172.773 220.872 172.462 221.463 171.94 221.674Z" fill="#7FA9C1"/>
<path d="M245.239 208.071C244.675 208.268 244.082 207.958 243.871 207.438C243.673 206.875 243.983 206.284 244.506 206.073C245.028 205.862 245.663 206.186 245.875 206.706C246.072 207.269 245.762 207.86 245.239 208.071Z" fill="#7FA9C1"/>
<path d="M268.285 129.364C267.339 129.688 266.337 129.181 265.985 128.281C265.66 127.338 266.168 126.339 267.071 125.988C267.974 125.636 269.019 126.171 269.372 127.071C269.696 128.013 269.188 129.012 268.285 129.364Z" fill="#7FA9C1"/>
<path d="M278.305 153.686C277.74 153.883 277.148 153.574 276.936 153.053C276.738 152.491 277.049 151.9 277.571 151.689C278.093 151.478 278.728 151.801 278.94 152.322C279.138 152.885 278.827 153.475 278.305 153.686Z" fill="#7FA9C1"/>
<path d="M234.653 216.888L254.653 137.143L222.011 76.1894L161.356 44.144L81.3105 73.5307" stroke="white" stroke-miterlimit="10"/>
<path d="M73.4637 79.27L44.2793 160.832L76.9212 221.8L137.59 253.846L228.053 227.688" stroke="white" stroke-miterlimit="10"/>
<path d="M67.2544 65.667L133.893 173.338L174.41 129.603L67.2544 65.667Z" stroke="white" stroke-miterlimit="10"/>
<path d="M134.449 173.486L244.548 235.544L175.25 129.084" stroke="white" stroke-miterlimit="10"/>
<path d="M161.074 14.3276L161.074 45.185" stroke="white" stroke-miterlimit="10"/>
<path d="M161.073 248.556V280.5" stroke="white" stroke-miterlimit="10"/>
<path d="M295.127 138.451H253.495" stroke="white" stroke-miterlimit="10"/>
<path d="M45.6484 161.381L18.2871 161.381" stroke="white" stroke-miterlimit="10"/>
<path d="M164.122 48.2094C162.711 50.1788 160.029 50.6008 158.054 49.3348C156.078 47.928 155.655 45.2552 156.925 43.2858C158.195 41.3164 161.017 40.8944 162.993 42.1604C164.969 43.5672 165.392 46.24 164.122 48.2094Z" fill="white"/>
<path d="M137.52 175.505C136.193 177.348 133.681 177.756 131.818 176.56C129.97 175.238 129.56 172.734 130.76 170.877C131.959 169.02 134.598 168.626 136.461 169.822C138.31 171.144 138.719 173.648 137.52 175.505Z" fill="white"/>
<path d="M68.6654 66.3705C67.6916 67.7351 65.8429 68.0164 64.474 67.1442C63.1051 66.1736 62.8228 64.3308 63.6978 62.9662C64.5728 61.6017 66.5203 61.3204 67.8892 62.1925C69.2581 63.1632 69.5403 65.006 68.6654 66.3705Z" fill="white"/>
<path d="M248.472 235.897C248.472 237.867 246.849 239.485 244.873 239.485C242.897 239.485 241.274 237.867 241.274 235.897C241.274 233.928 242.897 232.31 244.873 232.31C246.849 232.31 248.472 233.928 248.472 235.897Z" fill="white"/>
<path d="M237.579 219.611C237.579 221.651 235.886 223.339 233.839 223.339C231.793 223.339 230.1 221.651 230.1 219.611C230.1 217.571 231.793 215.883 233.839 215.883C235.886 215.883 237.579 217.571 237.579 219.611Z" fill="white"/>
<path d="M163.266 283.088C162.392 284.312 160.74 284.565 159.513 283.778C158.285 282.906 158.031 281.26 158.821 280.036C159.611 278.812 161.347 278.559 162.575 279.347C163.803 280.219 164.057 281.865 163.266 283.088Z" fill="white"/>
<path d="M258.082 140.899C256.784 142.7 254.328 143.094 252.522 141.926C250.715 140.632 250.32 138.184 251.491 136.384C252.663 134.583 255.245 134.189 257.052 135.357C258.858 136.651 259.253 139.099 258.082 140.899Z" fill="white"/>
<path d="M227.275 80.086C225.948 81.9429 223.422 82.3368 221.573 81.141C219.71 79.8187 219.315 77.3006 220.515 75.4578C221.714 73.615 224.367 73.2071 226.216 74.4028C228.079 75.7251 228.474 78.2432 227.275 80.086Z" fill="white"/>
<path d="M230.583 229.271C229.553 230.706 227.591 231.015 226.152 230.087C224.712 229.06 224.402 227.104 225.333 225.669C226.265 224.235 228.325 223.925 229.765 224.854C231.204 225.88 231.514 227.836 230.583 229.271Z" fill="white"/>
<path d="M164.009 249.541C162.979 250.976 161.017 251.286 159.578 250.357C158.138 249.33 157.828 247.375 158.759 245.94C159.69 244.505 161.751 244.196 163.19 245.124C164.63 246.151 164.94 248.106 164.009 249.541Z" fill="white"/>
<path d="M141.542 255.956C139.919 258.221 136.829 258.713 134.542 257.25C132.27 255.632 131.776 252.551 133.244 250.287C134.712 248.022 137.958 247.529 140.244 248.992C142.516 250.61 143.01 253.691 141.542 255.956Z" fill="white"/>
<path d="M79.7159 222.94C78.7844 224.234 77.0204 224.515 75.722 223.685C74.4237 222.757 74.1415 220.998 74.9741 219.704C75.8067 218.41 77.6696 218.129 78.9679 218.959C80.2662 219.887 80.5485 221.646 79.7159 222.94Z" fill="white"/>
<path d="M76.6958 80.9583C75.7644 82.2525 74.0004 82.5338 72.702 81.7039C71.4037 80.7754 71.1214 79.017 71.9541 77.7228C72.7867 76.4286 74.6495 76.1473 75.9479 76.9772C77.2462 77.9057 77.5285 79.6641 76.6958 80.9583Z" fill="white"/>
<path d="M86.6449 75.3314C85.276 77.2305 82.6934 77.6384 80.7742 76.4146C78.869 75.05 78.4597 72.4757 79.6875 70.5626C80.9153 68.6494 83.639 68.2555 85.5583 69.4794C87.4634 70.8439 87.8727 73.4182 86.6449 75.3314Z" fill="white"/>
<path d="M47.9062 163.027C46.7208 164.673 44.4769 165.025 42.8258 163.97C41.1746 162.788 40.8218 160.551 41.8803 158.905C42.9387 157.259 45.3096 156.908 46.9607 157.963C48.6119 159.144 48.9647 161.381 47.9062 163.027Z" fill="white"/>
<path d="M19.3037 163.027C18.1183 164.673 15.8744 165.025 14.2233 163.97C12.5721 162.788 12.2193 160.551 13.2777 158.905C14.3362 157.259 16.707 156.908 18.3582 157.963C20.0093 159.144 20.3621 161.381 19.3037 163.027Z" fill="white"/>
<path d="M295.028 126.888L298.02 134.977L305.994 131.896L300.518 138.395L307.292 143.825L298.726 142.376L297.526 150.887L294.535 142.798L286.448 145.893L292.023 139.253L285.263 133.95L293.702 135.399L295.028 126.888Z" fill="#FFA135"/>
<path d="M178.714 116.718L178.771 125.341L187.323 125.13L179.956 129.406L184.486 136.792L176.922 132.543L172.886 140.14L172.83 131.516L164.165 131.699L171.672 127.324L167.128 120.066L174.565 124.286L178.714 116.718Z" fill="#FFA135"/>
<path d="M163.452 13.1119C162.52 14.4061 160.756 14.6874 159.444 13.8575C158.145 12.929 157.863 11.1706 158.696 9.86233C159.528 8.55407 161.391 8.28679 162.704 9.11676C164.002 10.0452 164.284 11.8036 163.452 13.1119Z" fill="white"/>
<path d="M76.9355 110.908C76.0041 112.202 74.2401 112.483 72.9276 111.653C71.6293 110.725 71.347 108.966 72.1797 107.658C73.0123 106.35 74.8751 106.082 76.1876 106.912C77.4859 107.841 77.7682 109.599 76.9355 110.908Z" fill="#7FA9C1"/>
<path d="M89.6364 117.069C88.9732 117.983 87.7313 118.18 86.814 117.59C85.8967 116.928 85.6991 115.69 86.2918 114.776C86.8845 113.862 88.197 113.665 89.1143 114.256C90.0316 114.917 90.2292 116.155 89.6364 117.069Z" fill="#7FA9C1"/>
<path d="M151.35 59.2945C150.772 60.0964 149.671 60.2793 148.866 59.7588C148.062 59.182 147.879 58.0847 148.401 57.2829C148.923 56.4811 150.08 56.2982 150.884 56.8187C151.689 57.3954 151.872 58.4927 151.35 59.2945Z" fill="#7FA9C1"/>
<path d="M227.839 163.224L227.43 167.416L231.593 167.768L227.797 169.456L229.617 173.282L226.16 170.834L223.803 174.309L224.226 170.117L219.993 169.765L223.874 168.021L222.039 164.251L225.44 166.699L227.839 163.224Z" fill="#7FA9C1"/>
<path d="M66.6761 151.154L66.2668 155.346L70.4299 155.684L66.6337 157.386L68.4542 161.212L64.9967 158.751L62.6399 162.239L63.0633 158.047L58.8296 157.682L62.7105 155.951L60.8759 152.181L64.277 154.615L66.6761 151.154Z" fill="#7FA9C1"/>
<path d="M143.899 24.4497L143.489 28.6418L147.653 28.9794L143.856 30.6815L145.677 34.5079L142.219 32.0601L139.863 35.5348L140.286 31.3427L136.052 30.991L139.933 29.2467L138.099 25.4766L141.5 27.9103L143.899 24.4497Z" fill="#7FA9C1"/>
<path d="M169.894 281.502C169.329 281.699 168.737 281.39 168.525 280.869C168.327 280.306 168.638 279.716 169.16 279.505C169.682 279.294 170.317 279.617 170.529 280.138C170.726 280.7 170.416 281.291 169.894 281.502Z" fill="#7FA9C1"/>
<path d="M87.7033 217.693C87.1388 217.89 86.5461 217.58 86.3344 217.06C86.1369 216.497 86.4473 215.906 86.9695 215.695C87.4916 215.484 88.1267 215.808 88.3384 216.328C88.536 216.891 88.2255 217.482 87.7033 217.693Z" fill="#7FA9C1"/>
<path d="M116.789 171.608C116.224 171.805 115.632 171.496 115.42 170.975C115.222 170.412 115.533 169.822 116.055 169.611C116.577 169.4 117.212 169.723 117.424 170.244C117.621 170.806 117.311 171.397 116.789 171.608Z" fill="#7FA9C1"/>
<path d="M154.173 127.127C153.608 127.324 153.015 127.015 152.804 126.494C152.606 125.931 152.917 125.341 153.439 125.13C153.961 124.919 154.596 125.242 154.808 125.763C155.005 126.325 154.695 126.916 154.173 127.127Z" fill="#7FA9C1"/>
<path d="M174.297 154.432C173.732 154.629 173.139 154.319 172.928 153.799C172.73 153.236 173.041 152.645 173.563 152.434C174.085 152.223 174.72 152.547 174.932 153.067C175.129 153.63 174.819 154.221 174.297 154.432Z" fill="#7FA9C1"/>
</g>
<defs>
<clipPath id="clip0_205_257">
<rect width="307.212" height="292.812" fill="white" transform="translate(0.0795898 0.479004)"/>
</clipPath>
</defs>
</svg>
